X:1
T:Brandenburg Concerto #3
T:Brandenburg Concerto #3
T:J.S. Bach
C:J.S. Bach
%%score [ 1 2 3 ] 4
L:1/8
Q:1/4=100
M:4/4
K:G
V:1 treble nm="Violin I"
V:2 treble nm="Violin II"
V:3 treble nm="Violin III"
V:4 bass nm="Violoncello I"
V:1
 G/F/ | GD/C/ DG/F/ GB,/A,/ B,G/F/ | GG,/A,/ B,^C (D/C/D/)E/ D/F/D/G/ | %3
 (D/^C/D/)E/ D/A/D/B/ D/C/D/E/ D/=c/D/d/ | BA/G/ AG/F/ GF/E/ D/G/D/G/ | %5
 ED/C/ B,/G/B,/G/ CB,/A,/ G,/G/A,/G/ | B,/G/^C/G/ D/F/D/G/ D/A/D/B/ D/=c/D/d/ | %7
 BA/G/ DF GF/E/ D/C/B,/A,/ | B,A,/G,/ DD G,2 z g/f/ | gd/c/ d z z4 | %10
 z d g/b/a/g/ f/a/d/e/ f/g/a/g/ | fd' z ^c' d'ade | fe/d/ ed/^c/ dc/B/ A/d/A/d/ | %13
 BA/G/ F/d/F/d/ GF/E/ D/d/E/d/ | F/d/^G/d/ A/^c/A/d/ A/e/A/f/ A/=g/A/a/ | fe/d/ A^c d2 z g/f/ | %16
 gd/=c/ d z z4 | z B/c/ de A!p! d'/^c'/d' z | z d'/^c'/d' z z d'/c'/d' z | z!f! dfa fdfa | %20
 fA d/f/e/d/ ^c2 z c | B2 z e d/f/B/^c/ d/e/f/g/ | aa ag/f/ gg gf/e/ | %23
 fe/d/ A^c (d/c/d/)e/ d/f/d/g/ | (d/^c/d/)e/ d/a/d/b/ (f/e/f/)g/ f/A/g/B/ | %25
 (f/e/f/)g/ f/=c/g/B/ (A/G/A/)B/ A/g/A/f/ | g2 z!p! G/F/G z z G/F/ | (GG)GG (GG)GG | %28
 G!f!!wedge!G!wedge!G!wedge!D C/G/A/B/ c z | z c'/b/ c'c' c'b/a/ bb | %30
 _ba/g/ a/g/=f/e/ d/=B/G/A/ B/c/d/e/ | (=f/g/4f/4e/4f/4g/) d>c (c/B/c/)d/ c/e/d/f/ | %32
 (e/d/)e/=f/ e/g/f/a/ (g/f/g/)a/ g/a/g/f/ | e/=f/e/d/ c/e/d/c/ BG z G, | B,DB,G, B,DB,G, | %35
 DD/D/ D z z d/^c/d z | z d/^c/d z z =c/B/ cB/A/ | dc/B/ cB/A/ BG z D | B,G, z z2 d/c/ dg/f/ | %39
 gd/c/ d z z2 z g/f/ | gG/A/ B^c (d/c/d/)e/ d/f/d/g/ | %41
 (d/^c/d/)e/ d/a/d/b/ (d/c/d/)e/ d/=c'/d/d'/ | ba/g/ ag/f/ gf/e/ d/g/d/g/ | %43
 ed/c/ B/g/B/g/ cB/A/ G/g/A/g/ | B/g/^c/g/ d/f/d/g/ d/a/d/b/ d/=c'/d/d'/ | %45
 ba/g/ df gf/e/ d/c/B/A/ | BA/G/ dD G2 z/ G/D/E/ | (=F/E/F/)d/ B/F/D/G,/ (F/E/F/)d/ B/F/D/G,/ | %48
 (E/D/E/)c/ G/E/C/G,/ (E/D/E/)c/ G/E/C/G,/ | (^F/E/)F/c/ A/F/C/A,/ (F/E/)F/c/ A/F/C/A,/ | %50
 B,/D/E/F/ G/A/B/^c/ dD z2 |!p! (f/e/f) z2 (a/g/a) z2 | (^d/^c/^d) z2 (d/c/d) z2 | %53
 (f/e/f) z2 (f/e/)f z!f! e/^d/ | eB/A/ B z z4 | z E/F/ GA B^d/^c/ df/e/ | f z z2 z ^D/^C/ D b | %57
 gf/e/ fe/^d/ c'>b a/g/f/e/ | ba/g/ fe/^d/ e!p! e/d/e z | z e/^d/e z z e/d/ e z | %60
 z!f! e/f/ g/f/e/=d/ ^c/e/A/B/ c/d/e/d/ | ^ca z ^g aeAB | ^c/d/e/d/ c/e/a/g/ f!p! d'/^c'/d' z | %63
 z d'/^c'/ d' z z d'/c'/ d' z | z2 z!f! d B/d/G/A/ B/c/d/c/ | Bg/f/ g z z2 z g/f/ | gd/c/ d z z4 | %67
!p! (^c'/b/c') z2 (c'/b/c') z2 | (^a/^g/a) z2 (a/g/a) z2 | (^c'/b/c') z2 (^a/^g/a) z!f! b/a/ | %70
 bf/e/ fb/^a/ bd/^c/ db/a/ | bB/^c/ de (f/e/f/)g/ f/e/d/c/ | d/e/d/e/ Te3/2d/4e/4 fb/^a/ bf/e/ | %73
 d^c/B/ cB/^A/ g>f e/d/c/B/ | f>g ^c>B B2 z2 | z4 z d/^c/ df/e/ | ff fe/d/ ee ed/^c/ | %77
 d>^c Tc>B B2 z2 | G2 B2 d2 z d | Bd g/b/a/g/ (f/g/a/)g/ f/e/d/^c/ | dA/G/ Ad/^c/ dF/E/ Fd/c/ | %81
 dD/E/ F^G A2 z ^c | (d/^c/d/)e/ d/f/c/e/ (d/e/f/)e/ d/=c/B/A/ | %83
 (B/A/B/)c/ B/d/A/c/ (B/c/d/)c/ B/A/G/F/ | (G/F/G/)A/ G/B/F/A/ G/A/B/A/ G/F/E/D/ | %85
 E/G/F/A/ G/B/A/G/ F/G/A/B/ c/d/c/d/ | B/g/f/e/ d/c/B/A/ G/E/D/C/ B,/A,/G,/A,/ | %87
 B,/C/B,/A,/ G, g f/d/f/d/ f/d/f/d/ | =f/d/f/d/ f/d/f/d/ e/c/e/c/ e/c/e/c/ | %89
 e/^c/e/c/ e/c/e/c/ ^d/B/d/B/ d/B/d/B/ | =d/B/d/B/ d/B/d/B/ =c/A/c/A/ c/A/c/A/ | %91
 (_B/A/B/)=f/ d/B/=F/D/ (B/A/B/)f/ d/B/F/D/ | (c/=B/c/)^f/ c/A/^F/^D/ (c/B/)c/f/ c/A/F/_E/ | %93
 (=d/c/d/)^g/ d/B/^G/E/ (d/c/d/)g/ d/B/G/E/ | (c/B/c/)a/ f/c/A/_E/ (c/B/c/)a/ f/c/A/^D/ | %95
 (B/A/B/)a/ =f/d/B/E/ (B/A/B/)a/ f/d/B/E/ | (B/A/B/)^g/ d/B/^G/E/ (B/A/)B/g/ d/B/E/g/ | %97
 a =f/e/f z z2 z b | b e/d/e z z2 z b | a d/^c/d z z2 z a | ^gd/=c/ dB/A/ B^G/F/ Ge | %101
 A>B B>A A2 z A, | CECA, CECA, | EE/E/ E z (e/^d/e/)f/ e/g/f/a/ | %104
 (g/f/g/)a/ g/b/a/c'/ (b/a/b/)c'/ b/c'/b/a/ | g/a/g/f/ e/g/f/e/ ^dB z g/f/ | %106
 g=d/c/ dg/f/ gB/A/ Bg/f/ | gG/A/ B^c dD z2 |!p! (f/e/)f z2 (f/e/)f z2 | %109
!f! (=f/e/f/)d'/ b/f/d/G/ (f/e/f/)d'/ b/f/d/G/ |!p! (e/=f/)e z2 (e/f/)e z2 |!pp! (eeee) (eeee) | %112
 (aaaa) (aaaa) | (_aaaa) (aaaa) | (g/f/g) z2 (g/f/g) z2 | (g/f/g) z2 (g/f/g) z2 | %116
 (g/f/g) z2 (g/f/g) z2 | (g/f/g) z2 (g/f/g) z2 | (f/g/f) z2 (f/g/f) z2 |!f! g _e/d/e z z2 z _b | %120
 a d/^c/d z z2 z a | g =c/B/c z z2 z g | f a/g/a z z c'/_b/c' z | z _e'/d'/e' z z d'/c'/d' z | %124
 z c'/_b/c' z z a/g/f d | _e>d c/_B/A/G/ dc/B/ AG/F/ | GD/C/ DG/F/ GB,/A,/ B,G/F/ | %127
 GG,/A,/ B,^C (D/C/D/)E/ D/F/D/G/ | (D/^C/)D/E/ D/A/D/B/ (D/C/)D/E/ D/=c/D/d/ | %129
 BA/G/ AG/F/ GF/E/ D/G/D/G/ | ED/C/ B,/G/B,/G/ CB,/A,/ G,/G/A,/G/ | %131
 B,/G/^C/G/ D/F/D/G/ D/A/D/B/ D/=c/D/d/ | BA/G/ DF G z z2 | z4 z B/A/ Bd/c/ | %134
 dg/f/ gb/a/ ba/g/ f/e/d/c/ | B/d/c/B/ A/G/F/E/ D/G/F/E/ D/C/B,/A,/ | B,A,/G,/ DD !fermata!G,3 z || %137
[M:4/4]"^Adagio" A4 !fermata!B4 |] %138
V:2
 G/F/ | GD/C/ DG/F/ GB,/A,/ B,G/F/ | GG,/A,/ B,^C (D/C/D/)E/ D/F/D/G/ | %3
 (D/^C/D/)E/ D/A/D/B/ D/C/D/E/ D/=c/D/d/ | BA/G/ AG/F/ GF/E/ D/G/D/G/ | %5
 ED/C/ B,/G/B,/G/ CB,/A,/ G,/G/A,/G/ | B,/G/^C/G/ D/F/D/G/ D/A/D/B/ D/=c/D/d/ | %7
 BA/G/ DF GF/E/ D/C/B,/A,/ | B,A,/G,/ DD G,2 z d/c/ | dB/A/ B z z4 | z d g/b/a/g/ f2 z e | %11
 f/a/d/e/ f/g/a/g/ fd' z ^c' | d'e/d/ ed/^c/ dc/B/ A/d/A/d/ | BA/G/ F/d/F/d/ GF/E/ D/d/E/d/ | %14
 F/d/^G/d/ A/^c/A/d/ A/e/A/f/ A/=g/A/a/ | fe/d/ A^c d2 z d/=c/ | dB/A/ B z z4 | %17
 z B/c/ de A!p! a/g/a z | z a/g/a z z a/g/a z | z!f! dfa fdfa | fA d/f/e/d/ ^c/e/A/B/ c/d/e/f/ | %21
 g2 z g f2 z f | ff fe/f/ ee ed/e/ | dBAA A2 z!p! d/^c/ | d z z d/^c/ (dddd) | %25
 (dddd) d!f!!wedge!d!wedge!d!wedge!A | (G/F/)G/A/ G/B/G/c/ (G/F/G/)A/ G/d/G/e/ | %27
 (B/A/B/)c/ B/D/c/E/ (B/A/B/)c/ B/=F/c/E/ | (D/C/D/)E/ D/c/D/B/ c/G/A/B/ c z | z a/b/ aa ag/a/ gg | %30
 g=f/e/ fA BB B/A/B/c/ | dGGG (G/=F/G/)A/ G/c/B/d/ | (c/B/c/)d/ c/e/d/=f/ (e/d/e/)f/ e/f/e/d/ | %33
 c/d/c/B/ cA GD z G, | B,DB,G, B,DB,G, | DD/D/ D z z A/G/A z | z A/G/A z z A/G/ AG/F/ | %37
 GG FG/A/ G z z D | B,G, z z2 B/A/ Bd/c/ | dB/A/ B z z2 z g/f/ | gG/A/ B^c (A/G/A/)B/ A/=c/B/d/ | %41
 (A/G/A/)B/ A/f/B/g/ (A/G/A/)B/ A/g/f/a/ | ba/g/ ag/f/ gf/e/ d/g/d/g/ | ed/c/ B/g/B/g/ cB/A/ GA | %44
 B^c dD/E/ FGAf | gedf gf/e/ d/c/B/A/ | BA/G/ dD G2 z2 |!p! (d/c/d) z2 (d/c/d) z2 | %48
 (c/B/c) z2 (c/B/c) z2 | (A/G/)A z2 (A/G/A) z2 |!f! G/F/G/A/ B/A/G/A/ F2 z/ d/A/B/ | %51
 (c/B/c/)a/ f/^d/=c/A/ (c/B/c/)a/ f/d/c/A/ | (B/A/B/)a/ f/^d/B/F/ (B/A/B/)a/ f/d/B/F/ | %53
 (A/G/A/)f/ ^d/B/A/F/ (A/G/A/)f/ d/B/A/F/ | GG/F/ G z z4 | z E/F/ GA BA/G/ A^d/^c/ | %56
 ^d z z2 z ^D/^C/ D b | gf/e/ fe/^d/ c'>b a/g/f/e/ | ba/g/ fe/^d/ e!p! B/A/B z | %59
 z B/A/B z z B/A/ B z | z!f! B/A/ G^G A2 z B | ^c/e/A/B/ c/d/e/d/ ca z ^g | aeA^c d!p! a/g/a z | %63
 z a/g/ a z z a/g/ a z | z2 z!f! d B/d/G/A/ B/c/d/c/ | Bd/c/ d z z2 z B/c/ | dB/c/ B z z4 | %67
!p! (e/d/e) z2 (e/d/e) z2 | (^C/B,/C) z2 (C/B,/)C z2 | (=g/f/)g z2 (^c/B/)c z!f! f/e/ | %70
 fd/^c/ df/e/ fB/^A/ Bf/e/ | fB/^c/ de (f/e/f/)g/ f/e/d/c/ | d/e/d/e/ Te3/2d/4e/4 fb/^a/ bf/e/ | %73
 d^c/B/ cB/^A/ g>f e/d/c/B/ | FBB^A B2 z2 | z4 z B/^A/ Bd/^c/ | Bd d^c/d/ cc cB/c/ | %77
 B>^c T^A>B B2 z G/F/ | GD/C/ DG/F/ GB,/A,/ B,G/F/ | GG,/A,/ B,^C D2 z2 | D2 F2 A2 z A | %81
 FA d/f/e/d/ (^c/d/e/)d/ c/B/A/G/ | (F/E/)F/G/ F/A/E/G/ F2 z F | %83
 (G/F/)G/A/ G/B/F/A/ (G/A/B/)A/ G/F/E/^D/ | (E/^D/E/)F/ E/G/D/F/ E/F/G/F/ E/=D/C/B,/ | %85
 C/B,/A,/C/ B,/D/C/B,/ A,/B,/C/D/ E/F/G/A/ | D2 z G/A/ B/c/d/e/ d/c/B/A/ | %87
 GB e/g/f/e/ d/A/d/A/ d/A/d/A/ | d/B/d/B/ d/B/d/B/ c/G/c/G/ c/G/c/G/ | %89
 ^c/^A/c/A/ c/A/c/A/ B/F/B/F/ B/F/B/F/ | B/^G/B/G/ B/G/B/G/ A/E/A/E/ A/E/A/E/ | %91
 (=F/E/)F z2 (F/E/)F z2 | (A/G/)A z2 (A/G/)A z2 | (B/A/)B z2 (B/A/)B z2 | (f/e/f) z2 (f/e/f) z2 | %95
 (e/=f/e) z2 (e/f/)e z2 | (^g/f/)g z2 (g/f/g) z2 | a z z!f! c/B/c z z =f | =f z z B/A/B z z e | %99
 e z z A/^G/A z z d | dB/A/ B^G/F/ GD/C/ DB | eA ^G>A A2 z A, | CECA, CECA, | %103
 EE/E/ E z (B/A/B/)c/ B/e/^d/f/ | (e/^d/e/)f/ e/g/f/a/ (g/f/g/)a/ g/a/g/f/ | %105
 e/f/e/^d/ ec BF z g/f/ | g=d/c/ dg/f/ gB/A/ Bg/f/ | gG/A/ B^c dD z/ d/A/B/ | %108
 (c/B/c/)a/ f/c/A/D/ (c/B/c/)a/ f/c/A/D/ |!p! (B/A/)B z2 (B/A/)B z2 | (B/A/)B z2 (B/A/)B z2 | %111
!f! ((=G/F/G/))e/ ^c/G/E/A,/ ((G/F/G/))e/ c/G/E/A,/ |!p! (A/G/A) z2 (A/G/A) z2 | %113
 (d/c/d) z2 (d/c/d) z2 | z2 (_B/c/B) z2 (B/c/B) | z2 (_B/c/B) z2 (B/c/B) | z2 (_B/c/B) z2 (B/c/B) | %117
 z2 (_B/c/B) z2 (B/c/B) | z2 (A/_B/A) z2 (A/B/A) | _B z z B/A/B z z _e | _e z z A/G/A z z d | %121
 d z z G/F/G z z c | c f/g/f z z a/g/f z | z c'/_b/a z z b/c'/b z | z a/g/a z z _e/d/c d | %125
 _e>d c/_B/A/G/ dc/B/ AG/F/ | GD/C/ DG/F/ GB,/A,/ B,G/F/ | GG,/A,/ B,^C (D/C/D/)E/ D/F/D/G/ | %128
 (D/^C/)D/E/ D/A/D/B/ (D/C/)D/E/ D/=c/D/d/ | BA/G/ AG/F/ GF/E/ D/G/D/G/ | %130
 ED/C/ B,/G/B,/G/ CB,/A,/ G,/G/A,/G/ | B,/G/^C/G/ D/F/D/G/ D/A/D/B/ D/=c/D/d/ | BA/G/ DF G z z2 | %133
 z4 z G/F/ GB/A/ | Bd/c/ dg/f/ g2 z d | gf/e/ d/c/B/A/ GF/E/ D/C/B,/A,/ | %136
 B,A,/G,/ DD !fermata!G,3 z ||[M:4/4] E4 !fermata!F4 |] %138
V:3
 G/F/ | GD/C/ DG/F/ GB,/A,/ B,G/F/ | GG,/A,/ B,^C (D/C/D/)E/ D/F/D/G/ | %3
 (D/^C/D/)E/ D/A/D/B/ D/C/D/E/ D/=c/D/d/ | BA/G/ AG/F/ GF/E/ D/G/D/G/ | %5
 ED/C/ B,/G/B,/G/ CB,/A,/ G,/G/A,/G/ | B,/G/^C/G/ D/F/D/G/ D/A/D/B/ D/=c/D/d/ | %7
 BA/G/ DF GF/E/ D/C/B,/A,/ | B,A,/G,/ DD G,2 z B/A/ | BG/F/ GB/A/ BG/F/ G z | %10
 z d g/b/a/g/ f2 z ^c | d2 z e f/a/d/e/ f/g/a/g/ | fe/d/ ed/^c/ dc/B/ A/d/A/d/ | %13
 BA/G/ F/d/F/d/ GF/E/ D/d/E/d/ | F/d/^G/d/ A/^c/A/d/ A/e/A/f/ A/=g/A/a/ | fe/d/ A^c d2 z G/A/ | %16
 BG/F/ GB/A/ BG/F/ G z | z B/c/ de A!p! f/e/d z | z f/e/d z z f/e/d z | z!f! dfa fdfa | %20
 fA d/f/e/d/ ^c2 z A | G/B/E/F/ G/A/B/^c/ d2 z d | ^cd dB/c/ Bc cA/B/ | AG/F/ EE F2 z!p! d/^c/ | %24
 d z z d/^c/ d(AAB) | (AA)AB D!f!!wedge!D!wedge!D!wedge!d | d2 z!p! G/F/G z z G/F/ | %27
 G(DDE) (DDDE) | G,!f!!wedge!G,!wedge!G,!wedge!G, G,/G/A/B/ c z | z e/=f/ ef fd/e/ de | %30
 ec/d/ cd GGGG | DCDD (E/D/E/)=F/ E/G/F/A/ | (G/=F/G/)A/ G/c/G/d/ G/c/G/B/ G/c/G/B/ | %33
 G/A/G/=F/ GD!f! (G/^F/G/)A/ G/B/A/c/ | (B/A/B/)c/ B/d/c/e/ (d/c/d/)e/ d/e/d/c/ | %35
 (B/c/B/)A/ G/B/A/G/ F2 F z | z F/E/F z z F/G/ FD | DDCD D z z D | B,G, z z2 G/F/ GB/A/ | %39
 BG/F/ G z z2 z g/f/ | gG/A/ B^c (F/E/F/)G/ F/A/G/B/ | (F/E/F/)G/ F/D/G/E/ (F/E/F/)G/ F/A/d/f/ | %42
 ba/g/ ag/f/ gf/e/ d/g/d/g/ | ed/c/ B/g/B/g/ cB/A/ GA | B^c dD/E/ FGAd | dc/B/ Af gf/e/ d/c/B/A/ | %46
 BA/G/ dD G2 z2 |!p! (B/A/B) z2 (B/A/B) z2 | (G/F/G) z2 (G/F/G) z2 | (C/B,/)C z2 (C/B,/)C z2 | %50
!f! B,/A,/B,/^C/ D/C/D/E/ F2 z2 |!p! (A/G/)A z2 (F/E/)F z2 | (F/E/F) z2 (F/E/F) z2 | %53
 (=c/B/)c z2 (^d/^c/d) z!f! B/A/ | BE/^D/ EG/F/ GE/D/ E z | z E/F/ GA BF/E/ FA/G/ | %56
 A z z2 z ^D/^C/ D b | gf/e/ fe/^d/ c'>b a/g/f/e/ | ba/g/ fe/^d/ e!p! G/F/E z | %59
 z G/F/E z z G/F/ E z | z!f! G/A/ BB ^c2 z ^G | E2 z B ^c/e/A/B/ c/d/e/d/ | ^caec A!p! f/e/d z | %63
 z f/e/ d z z f/e/ d z | z2 z!f! d B/d/G/A/ B/c/d/c/ | BB/A/ G z z2 z B/A/ | %66
 GB/A/ G z z2 z/!f! D/E/F/ | (G/F/G/)e/ ^c/^A/=G/E/ (G/F/)G/e/ c/A/G/E/ | %68
 (F/E/)F/e/ ^c/^A/F/^C/ (F/E/)F/e/ c/A/F/C/ | (E/D/E/)^c/ ^A/F/E/^C/ (E/D/)E/c/ A/F/E/C/ | %70
 DB/^A/ Bd/^c/ dF/E/ Fd/c/ | dB/^c/ de (f/e/f/)g/ f/e/d/c/ | d/e/d/e/ Te3/2d/4e/4 fb/^a/ bf/e/ | %73
 d^c/B/ cB/^A/ g>f e/d/c/B/ | DGFF D2 z2 | z F/E/ FB/^A/ BF/E/ FB/A/ | BB BG/A/ GF FF/G/ | %77
 FGTFF F2 z2 | GFGA BcBA | GFEA dDFA | d2 z2 z4 | z8 | z8 | z8 | z8 | z8 | G,2 B,2 D2 z D | %87
 B,D G/B/A/G/ d/F/A/F/ A/F/A/F/ | B/G/B/G/ B/G/B/G/ G/E/G/E/ G/E/G/E/ | %89
 ^A/F/A/F/ A/F/A/F/ F/^D/F/D/ F/D/F/D/ | ^G/E/G/E/ G/E/G/E/ E/C/E/C/ E/C/E/C/ | %91
!p!!p! (D/C/D) z2 (D/C/)D z2 | (F/E/)F z2 (F/E/)F z2 | (^G/F/)G z2 (G/F/)G z2 | %94
 (A/^G/)A z2 (A/G/)A z2 | (d/c/d) z2 (d/c/)d z2 | (d/c/d) z2 (d/c/d) z2 | c z z2 z!f! A/^G/A c | %98
 d z z2 z G/F/G B | c z z2 z =F/E/F A | B^G/^F/ GD/C/ DB,/A,/ B,G | E=FEE E2 z A, | CECA, CECA, | %103
 EE/E/ E z (G/F/)G/A/ G/B/A/c/ | (B/A/B/)c/ B/e/B/f/ B/e/B/^d/ B/e/B/d/ | B/c/B/A/ BF F^D z g/f/ | %106
 g=d/c/ dg/f/ gB/A/ Bg/f/ | gG/A/ B^c dD z2 |!p! (A/G/)A z2 (A/G/)A z2 | (d/c/d) z2 (d/c/d) z2 | %110
!f! (d/c/d/)b/ ^g/d/B/E/ (d/c/d/)b/ g/d/B/E/ |!pp! (^cccc) (cccc) | (AA)AA (AA)AA | %113
 (=BBBB) (BBBB) | (_B/A/)B z2 (B/A/)B z2 | (_B/A/)B z2 (B/A/)B z2 | (^c/_B/c) z2 (c/B/c) z2 | %117
 (_B/A/)B z2 (B/A/)B z2 | (A/G/)A z2 (A/G/)A z2 |!f!!f! G z z2 z G/F/G _B | c z z2 z =F/E/F A | %121
 _B z z2 z _E/D/E G | D c/_B/c z z ^f/e/d z | z a/g/f z z g/f/g z | z f/e/d z z c/_B/A d | %125
 _e>d c/_B/A/G/ dc/B/ AG/F/ | GD/C/ DG/F/ GB,/A,/ B,G/F/ | GG,/A,/ B,^C (D/C/D/)E/ D/F/D/G/ | %128
 (D/^C/)D/E/ D/A/D/B/ (D/C/D/)E/ D/=c/D/d/ | BA/G/ AG/F/ GF/E/ D/G/D/G/ | %130
 ED/C/ B,/G/B,/G/ CB,/A,/ G,/G/A,/G/ | B,/G/^C/G/ D/F/D/G/ D/A/D/B/ D/=c/D/d/ | BA/G/ DF G z z2 | %133
 z D/C/ DG/F/ GD/C/ DG/F/ | GB/A/ Bd/c/ d2 z G | BA/G/ F/E/D/C/ B,/G/F/E/ D/C/B,/A,/ | %136
 B,A,/G,/ DD !fermata!G,3 z ||[M:4/4] E4 !fermata!^D4 |] %138
V:4
 G,, | G,,G,G,G,, G,,G,G,G,, | G,,G,/F,/ E,A, D,D/^C/ DD, | D,D/^C/ DD, D,D/C/ DF, | %4
 G,E,C,D, E,D,/C,/ B,,A,,/G,,/ | C,B,,/A,,/ G,,G,/F,/ E,D,/C,/ B,,^C, | D,D,, D,,D,/E,/ F,G,A,F, | %7
 G,CDD, G,F,/E,/ D,/C,/B,,/A,,/ | B,,A,,/G,,/ D,D,, G,,2 z D, | G,,2 z2 z2 z D/C/ | %10
 B,/C/B,/A,/ G,^C, D,2 z A, | D2 z A, D,2 z A,, | D,,B,,G,,A,, B,,A,,/G,,/ F,,E,,/D,,/ | %13
 G,,F,,/E,,/ D,, D/^C/ B,A,/G,/ F,^G, | A,A,, A,,A,/B,/ ^CDEC | DG,A,A,, D,D/C/ B,/C/B,/A,/ | %16
 G,2 z2 z2 z G,/F,/ | G,G,,/A,,/ B,,^C, D,2 z A, | D2 z A, D,2 z A,, | D,,D,D,D,, D,,D,D,D,, | %20
 D,,D,/^C,/ B,,E, A,,2 z A,, | E,2 z E, B,,2 z B,, | F, B,/A,/ B,E,/D,/ E,A,/G,/ A,D,/^C,/ | %23
 D,G,A,A,, D, D/^C/D z | z D/^C/D z z D,/^C,/D, z | z D,/^C,/D, z2 D/=C/ DD, | %26
 G,, G,/F,/G, z z G,/F,/ G, z | z G,,/F,,/G,, z z G,,/F,,/G,, z | %28
 z G,/=F,/ G,G,, C,2 z/ B,,/C,/D,/ | E,A,/G,/ A,D,/C,/ D,G,/=F,/ G,C,/B,,/ | %30
 C,=F,/E,/ F,2- F,/G,/F,/E,/ D,/C,/B,,/A,,/ | G,,C,G,G,, C,2 z C/B,/ | %32
 CG,/=F,/ G,C/B,/ CE,/D,/ E,C/B,/ | CC,/D,/ E,^F, G,G,, z G,/F,/ | %34
 G,D,/C,/ D,G,/F,/ G,B,,/A,,/ B,,G,/F,/ | G,G,,/A,,/ B,,^C, (D,/C,/D,/)E,/ D,/F,/D,/G,/ | %36
 (D,/^C,/D,/)E,/ D,/A,/D,/B,/ (D,/C,/D,/)E,/ D,/=C/D,/D/ | B,A,/G,/ A,G,/F,/ G,B,/A,/ B,D/C/ | %38
 D z z2 z2 z G, | G,G,,G,,G, G,G,, G,,G,/F,/ | G,G,,/A,,/ B,,^C, D,D,, D,, D/^C/ | %41
 DD, D,,D,/^C,/ D,D,,D,,F, | G,E,C,D, E,D,/C,/ B,,A,,/G,,/ | C,B,,/A,,/ G,,G,/F,/ E,D,/C,/ B,,^C, | %44
 D,D,, D,,D,/E,/ F,G,A,D, | G,C,D,D,, E,,2 z F,, | G,,C,,D,,D, G,F,/E,/ D,/C,/B,,/A,,/ | %47
 G,,2 z2 G,,2 z2 | G,,2 z2 G,,2 z2 | G,,2 z2 G,,2 z2 | G,F,E,A, D,^C,/B,,/ A,,/G,,/F,,/E,,/ | %51
 ^D,,2 z2 F,,2 z2 | A,,2 z2 A,2 z2 | ^D,2 z2 B,,2 z2 | E,2 z2 z2 z G,/F,/ | %55
 E,E,,/F,,/ G,,A,, (B,,/^A,,/B,,/)^C,/ B,,/^D,/B,,/E,/ | %56
 (B,,/^A,,/B,,/)^C,/ B,,/F,/B,,/G,/ (B,,/A,,/B,,/)C,/ B,,/=A,/B,,/B,/ | %57
 G,F,/E,/ F,E,/^D,/ C>B, A,/G,/F,/E,/ | ^D,E,A,,B,, E,,2 z B,, | E,2 z B, E2 z B, | %60
 E,/F,/G,/F,/ E,/D,/^C,/B,,/ A,,2 z E,, | A,,2 z E, A,2 z E, | %62
 A,,/B,,/^C,/B,,/ A,,/G,,/F,,/E,,/ D,,/A,/D,/E,/ F,/G,/A,/G,/ | F,D z A, DA,D,A,, | %64
 D,,/ B,/A,/G,/ F,/E,/D,/C,/ D,G,/F,/ G,!f!D, | G,,2 z F, G,/D,/G,,/A,,/ B,,/C,/D,/C,/ | %66
 B,,/D,/G,,/A,,/ B,,/C,/D,/C,/ B,,/C,/D,/C,/ B,,/A,,/G,,/F,,/ |!p! E,,2 z2 E,,2 z2 | %68
 E,2 z2 E,2 z2 | ^A,,2 z2 F,,2 z2 | B,,B,B,B,, B,,B,B,B,, | B,,B,/A,/ G,F,/E,/ D,^C,/B,,/ ^A,,F,, | %72
 B,,B,/A,/ G,F,/E,/ D,/^C,/D,/E,/ D,/E,/D,/C,/ | B,,G,E,F, G,>F, E,/D,/^C,/B,,/ | %74
 D,E,F,F,, B,, B,/^A,/ B,D/^C/ | D z2 z4 B,,/^C,/ | D,G,/F,/ G,^C,/B,,/ C,F,/E,/ F,B,,/^A,,/ | %77
 B,,E,F,F,, B,,=C,B,,A,, | G,,2 z2 z4 | z8 | D,^C,D,E, F,G,F,E, | D,^C,B,,E, A,,2 z A,, | %82
 D,D,,F,,A,, D,2 z D, | G,G,,B,,D, G,2 z B,, | E,E,,G,,B,, E,2 z G,, | C,D,G,,C, D,C,B,,A,, | %86
 G,,G,G,G,, G,,G,G,G,, | G,,G,/F,/ E,A, DCB,A, | G,=F,E,D, C_B,A,G, | ^F,E,D,^C, B,A,G,F, | %90
 E,D,=C,B,, A,,G,,=F,,E,, | D,,2 z2 z4 | ^D,,2 z2 z4 | E,,2 z2 z4 | E,,2 z2 z4 | E,,2 z2 z4 | %96
 E,,2 z2 z4 | A,, z z2 z2 z A, | G,, z z2 z2 z G, | =F,, z z2 z2 z =F, | E,,E,E,E,, E,,E,E,D, | %101
 C,D,E,E,, A,,2 z A,/^G,/ | A,E,/D,/ E,A,/^G,/ A,C,/B,,/ C,A,/G,/ | %103
 A,A,,/B,,/ ^C,^D, E,E,, z E,/D,/ | E,B,,/A,,/ B,,E,/^D,/ E,G,,/F,,/ G,,E,/D,/ | %105
 E,E,,/F,,/ G,,A,, B,,/A,,/B,,/C,/ B,,/C,/B,,/A,,/ | G,,2 z D, (G,/F,/G,/)A,/ G,/B,/A,/C/ | %107
 B,/C/B,/A,/ G,/B,/A,/G,/ F,/B,/A,/G,/ F,/G,/F,/E,/ | D,2 z2 D,2 z2 | G,,2 z2 G,,2 z2 | %110
 ^G,,2 z2 G,,2 z2 | A,,2 z2 A,,2 z2 | F,,2 z2 F,,2 z2 | =F,,2 z2 F,,2 z2 | %114
 (^C,,/D,,/)C,,/ _B,/ G,/E,/^C,/G,,/ (C,,/D,,/)C,,/ B,/ G,/E,/C,/G,,/ | %115
 (D,,/_E,,/D,,/) _B,/ G,/D,/_B,,/G,,/ (D,,/E,,/D,,/) B,/ G,/D,/B,,/G,,/ | %116
 (D,,/_E,,/D,,/) ^C/ _B,/G,/=E,/^C,/ (D,,/_E,,/)D,,/ C/ B,/G,/=E,/C,/ | %117
!f! (D,,/_E,,/)D,,/ D/ _B,/G,/D,/_B,,/ (D,,/E,,/D,,/) D/ B,/G,/D,/B,,/ | %118
 (D,,/_E,,/)D,,/ _E/ C/A,/^F,/D,/ (D,,/E,,/)D,,/ E/ C/A,/F,/D,/ | G,, z z2 z2 z G, | %120
 =F,, z z2 z2 z =F, | _E,, z z2 z2 z _E, | D,,2 z D, D,,2 z D, | %123
 C,,2 z C, _B,,/D,/G,,/A,,/ B,,/C,/D,/E,/ | F,/A,/D,/E,/ F,/G,/A,/_B,/ C/A,/F,/G,/ A,/B,/C/D/ | %125
 _E>D C/_B,/A,/G,/ F,G,DD, | G,,G,G,G,, G,,G,G,G,, | G,,G,/F,/ E,A, D,D/^C/ DD, | %128
 D,D/^C/ DD, D,D/C/ DF, | G,E,C,D, E,D,/C,/ B,,A,,/G,,/ | C,B,,/A,,/ G,,G,/F,/ E,D,/C,/ B,,^C, | %131
 D,D,, D,,D,/E,/ F,G,A,F, | G,CDD, G, G,/F,/ G,B,/A,/ | B, z z2 z4 | z8 | %135
 z z2 D, G,F,/E,/ D,/C,/B,,/A,,/ | B,,A,,/G,,/ D,D,, !fermata!G,,3 z ||[M:4/4] C,4 !fermata!B,,4 |] %138

